public/assets/partners/featured/kiif.svg

<svg fill="none" height="115" viewBox="0 0 180 115" width="180" xmlns="http://www.w3.org/2000/svg"><path d="m77.4946 3.75465c0-1.57852-1.2782-2.858166-2.8551-2.858166-1.5768 0-2.8551 1.279646-2.8551 2.858166v65.93965c0 1.5785 1.2783 2.8582 2.8551 2.8582 1.5769 0 2.8551-1.2797 2.8551-2.8582z" fill="#d83b3f"/><path d="m107.68 3.75465c0-1.57852-1.278-2.858166-2.855-2.858166s-2.855 1.279646-2.855 2.858166v65.93965c0 1.5785 1.278 2.8582 2.855 2.8582s2.855-1.2797 2.855-2.8582z" fill="#d83b3f"/><path d="m176.557 33.2971h-38.931v-25.54592h38.931c1.892 0 3.428-1.53619 3.428-3.42735s-1.53-3.427346-3.428-3.427346h-41.262c-.092 0-.172.018361-.264.024481-.085-.00612-.171-.024481-.263-.024481-1.579 0-2.858 1.279136-2.858 2.858166v.06732c-.024.16525-.049.33049-.049.50186s.025.33661.049.50186v31.39081c-.024.1653-.049.3305-.049.5019 0 .1713.025.3366.049.5018v32.468c0 1.579 1.279 2.8582 2.858 2.8582s2.858-1.2792 2.858-2.8582v-29.5425h38.931c1.892 0 3.428-1.5362 3.428-3.4273 0-1.8912-1.536-3.4274-3.428-3.4274z" fill="#d83b3f"/><path d="m46.9363 67.4727-39.78172-30.0811 39.78172-30.0872c1.1322-.85684 1.3587-2.47259.5018-3.60484l-.3427-.4529c-.8568-1.13224-2.4726-1.35869-3.6048-.50186l-37.6886 28.5082v-27.49835c0-1.57903-1.27913-2.858166-2.85816-2.858166-1.57291 0-2.8520431 1.279136-2.8520431 2.858166v65.94575c0 1.5791 1.2791331 2.8582 2.8581631 2.8582s2.85816-1.2791 2.85816-2.8582v-26.1702l37.69468 28.5021c1.1323.8568 2.748.6304 3.6048-.5019l.3428-.4529c.8568-1.1322.6304-2.748-.5019-3.6048z" fill="#d83b3f"/><g fill="#000"><path d="m2.99868 92.0945-1.68307 1.7075v2.3808h-1.31585414v-9.1987h1.31585414v5.141l4.99413-5.141h1.49947l-3.92921 4.1434 4.18014 5.0614h-1.53619l-3.51915-4.0883z"/><path d="m14.9395 93.8816h-4.8901l-1.00981 2.3012h-1.35258l4.16789-9.1987h1.3036l4.1802 9.1987h-1.3771l-1.0098-2.3012zm-.459-1.0527-1.983-4.5045-1.9829 4.5045z"/><path d="m24.842 96.1767-1.9829-2.8275c-.1836.0122-.3795.0245-.5753.0245h-2.2768v2.7969h-1.3158v-9.1987h3.5864c2.3931 0 3.8374 1.2118 3.8374 3.207 0 1.4199-.7344 2.442-2.0258 2.9071l2.1788 3.0907h-1.4321zm-.0367-5.9917c0-1.3159-.8813-2.0625-2.5644-2.0625h-2.2339v4.1373h2.2339c1.6831 0 2.5644-.7589 2.5644-2.0748z"/><path d="m36.1523 86.978v9.1987h-1.0772l-5.5205-6.8608v6.8608h-1.3158v-9.1987h1.0771l5.5205 6.8608v-6.8608z"/><path d="m44.7694 93.8816h-4.8901l-1.0099 2.3012h-1.3526l4.1679-9.1987h1.3037l4.1801 9.1987h-1.3771l-1.0098-2.3012zm-.4591-1.0527-1.9829-4.5045-1.983 4.5045z"/><path d="m56.0247 86.978-4.0333 9.1987h-1.3036l-4.0455-9.1987h1.4199l3.3111 7.5585 3.3355-7.5585z"/><path d="m62.7633 93.8816h-4.8901l-1.0099 2.3012h-1.3526l4.1679-9.1987h1.3037l4.1801 9.1987h-1.3771l-1.0098-2.3012zm-.4591-1.0527-1.9829-4.5045-1.983 4.5045z"/><path d="m67.8858 88.1225h-3.1519v-1.1445h7.6075v1.1445h-3.152v8.0542h-1.3036z"/><path d="m73.7671 86.978h1.3158v9.1987h-1.3158z"/><path d="m81.3748 86.978h1.3158v9.1987h-1.3158z"/><path d="m93.3583 86.978v9.1987h-1.0771l-5.5205-6.8608v6.8608h-1.3159v-9.1987h1.0772l5.5205 6.8608v-6.8608z"/><path d="m104.026 86.978v9.1987h-1.077l-5.5208-6.8608v6.8608h-1.3159v-9.1987h1.0772l5.5205 6.8608v-6.8608z"/><path d="m106.028 91.5804c0-2.6929 2.074-4.7065 4.902-4.7065 2.827 0 4.878 1.9952 4.878 4.7065s-2.075 4.7065-4.878 4.7065-4.902-2.0136-4.902-4.7065zm8.464 0c0-2.0381-1.524-3.5375-3.562-3.5375s-3.587 1.4994-3.587 3.5375c0 2.038 1.524 3.5375 3.587 3.5375 2.062 0 3.562-1.4995 3.562-3.5375z"/><path d="m125.514 86.978-4.033 9.1987h-1.304l-4.045-9.1987h1.42l3.311 7.5585 3.335-7.5585z"/><path d="m132.253 93.8816h-4.89l-1.01 2.3012h-1.353l4.168-9.1987h1.304l4.18 9.1987h-1.377l-1.01-2.3012zm-.459-1.0527-1.983-4.5045-1.983 4.5045z"/><path d="m137.369 88.1225h-3.152v-1.1445h7.608v1.1445h-3.152v8.0542h-1.304z"/><path d="m143.257 86.978h1.315v9.1987h-1.315z"/><path d="m146.58 91.5804c0-2.6929 2.075-4.7065 4.902-4.7065 2.828 0 4.878 1.9952 4.878 4.7065s-2.075 4.7065-4.878 4.7065-4.902-2.0136-4.902-4.7065zm8.464 0c0-2.0381-1.524-3.5375-3.562-3.5375s-3.586 1.4994-3.586 3.5375c0 2.038 1.524 3.5375 3.586 3.5375 2.063 0 3.562-1.4995 3.562-3.5375z"/><path d="m166.269 86.978v9.1987h-1.077l-5.52-6.8608v6.8608h-1.316v-9.1987h1.077l5.52 6.8608v-6.8608z"/><path d="m179.287 96.3236-1.224-1.2241c-.802.7773-1.855 1.1812-3.079 1.1812-1.867 0-3.219-.9853-3.219-2.393 0-1.1322.643-1.9217 2.234-2.8275-.826-.8263-1.102-1.4199-1.102-2.0993 0-1.2363.973-2.0625 2.485-2.0625 1.395 0 2.289.7222 2.289 1.9217 0 .9364-.551 1.6035-1.959 2.4053l2.277 2.2584c.251-.4713.447-1.0282.563-1.6709l1.01.3305c-.159.814-.434 1.524-.802 2.1054l1.237 1.2363zm-1.971-1.9585-2.613-2.6011c-1.286.7222-1.696 1.2608-1.696 1.9952 0 .8813.827 1.4689 2.063 1.4689.881 0 1.658-.2877 2.246-.8691zm-3.244-5.4287c0 .4713.184.814.937 1.579 1.211-.6854 1.603-1.1016 1.603-1.683 0-.5815-.434-1.0099-1.224-1.0099-.826 0-1.316.4591-1.316 1.12z"/><path d="m-.00024414 104.776h1.31585414v9.198h-1.31585414z"/><path d="m11.8915 104.776v9.198h-1.0771l-5.52052-6.86v6.86h-1.31585v-9.198h1.07716l5.52051 6.86v-6.86z"/><path d="m13.8071 109.378c0-2.723 2.0748-4.706 4.8779-4.706 1.4199 0 2.6562.483 3.4946 1.432l-.8568.826c-.7099-.747-1.579-1.089-2.5889-1.089-2.0747 0-3.617 1.499-3.617 3.537s1.5362 3.538 3.617 3.538c1.0099 0 1.879-.355 2.5889-1.102l.8568.826c-.8384.949-2.0747 1.445-3.5069 1.445-2.7847 0-4.8656-1.983-4.8656-4.707z"/><path d="m23.8382 110.008v-5.232h1.3158v5.177c0 2.038.9303 2.956 2.5889 2.956s2.6011-.918 2.6011-2.956v-5.177h1.273v5.232c0 2.669-1.4566 4.077-3.8925 4.077-2.4358 0-3.8925-1.408-3.8925-4.077z"/><path d="m42.132 111.496c0 1.579-1.1934 2.485-3.5253 2.485h-4.3882v-9.199h4.1251c2.1176 0 3.2988.893 3.2988 2.381 0 .997-.5141 1.695-1.2363 2.05 1.0404.288 1.7198 1.065 1.7198 2.289zm-6.5976-5.649v2.944h2.6929c1.3403 0 2.1053-.502 2.1053-1.469s-.765-1.475-2.1053-1.475zm5.2695 5.545c0-1.065-.7895-1.537-2.2461-1.537h-3.0234v3.061h3.0234c1.4566 0 2.2461-.459 2.2461-1.524z"/><path d="m49.9288 111.679h-4.8901l-1.0099 2.302h-1.3525l4.1679-9.199h1.3036l4.1801 9.199h-1.377l-1.0099-2.302zm-.459-1.052-1.983-4.505-1.983 4.505z"/><path d="m54.9598 105.92h-3.1519v-1.144h7.6074v1.144h-3.1519v8.054h-1.3036z"/><path d="m60.7495 104.776h1.3159v9.198h-1.3159z"/><path d="m63.981 109.378c0-2.693 2.0747-4.706 4.9023-4.706 2.8275 0 4.8778 1.995 4.8778 4.706s-2.0747 4.707-4.8778 4.707-4.9023-2.014-4.9023-4.707zm8.4643 0c0-2.038-1.524-3.537-3.562-3.537-2.0381 0-3.5865 1.499-3.5865 3.537s1.524 3.538 3.5865 3.538 3.562-1.5 3.562-3.538z"/><path d="m83.5844 104.776v9.198h-1.0772l-5.5204-6.86v6.86h-1.3159v-9.198h1.0772l5.5204 6.86v-6.86z"/><path d="m91.0019 105.92v3.207h4.6147v1.132h-4.6147v3.722h-1.3159v-9.199h6.4936v1.144h-5.1777z"/><path d="m97.0854 109.378c0-2.693 2.0748-4.706 4.9026-4.706 2.827 0 4.878 1.995 4.878 4.706s-2.075 4.707-4.878 4.707c-2.8033 0-4.9026-2.014-4.9026-4.707zm8.4646 0c0-2.038-1.524-3.537-3.562-3.537-2.0383 0-3.5867 1.499-3.5867 3.537s1.5239 3.538 3.5867 3.538c2.062 0 3.562-1.5 3.562-3.538z"/><path d="m108.696 110.008v-5.232h1.315v5.177c0 2.038.931 2.956 2.589 2.956 1.659 0 2.601-.918 2.601-2.956v-5.177h1.273v5.232c0 2.669-1.456 4.077-3.892 4.077s-3.893-1.408-3.893-4.077z"/><path d="m126.983 104.776v9.198h-1.077l-5.521-6.86v6.86h-1.315v-9.198h1.077l5.52 6.86v-6.86z"/><path d="m129.646 104.776h3.88c2.956 0 4.969 1.866 4.969 4.602s-2.007 4.603-4.969 4.603h-3.88v-9.199zm3.8 8.054c2.277 0 3.734-1.396 3.734-3.458 0-2.063-1.457-3.458-3.734-3.458h-2.485v6.91h2.485z"/><path d="m146.133 111.679h-4.89l-1.01 2.302h-1.352l4.168-9.199h1.303l4.18 9.199h-1.377l-1.01-2.302zm-.459-1.052-1.983-4.505-1.983 4.505z"/><path d="m151.164 105.92h-3.152v-1.144h7.608v1.144h-3.152v8.054h-1.304z"/><path d="m156.954 104.776h1.316v9.198h-1.316z"/><path d="m160.186 109.378c0-2.693 2.074-4.706 4.902-4.706 2.827 0 4.878 1.995 4.878 4.706s-2.075 4.707-4.878 4.707-4.902-2.014-4.902-4.707zm8.464 0c0-2.038-1.524-3.537-3.562-3.537s-3.587 1.499-3.587 3.537 1.524 3.538 3.587 3.538c2.062 0 3.562-1.5 3.562-3.538z"/><path d="m179.789 104.776v9.198h-1.078l-5.52-6.86v6.86h-1.316v-9.198h1.077l5.521 6.86v-6.86z"/></g></svg>

<svg xmlns="http://www.w3.org/2000/svg" width="180" height="115" fill="none" viewBox="0 0 180 115"><path fill="#D83B3F" d="M77.4946 3.75465C77.4946 2.17613 76.2164 0.896484 74.6395 0.896484C73.0627 0.896484 71.7844 2.17613 71.7844 3.75465V69.6943C71.7844 71.2728 73.0627 72.5525 74.6395 72.5525C76.2164 72.5525 77.4946 71.2728 77.4946 69.6943V3.75465Z"/><path fill="#D83B3F" d="M107.68 3.75465C107.68 2.17613 106.402 0.896484 104.825 0.896484C103.248 0.896484 101.97 2.17613 101.97 3.75465V69.6943C101.97 71.2728 103.248 72.5525 104.825 72.5525C106.402 72.5525 107.68 71.2728 107.68 69.6943V3.75465Z"/><path fill="#D83B3F" d="M176.557 33.2971H137.626V7.75118H176.557C178.449 7.75118 179.985 6.21499 179.985 4.32383C179.985 2.43267 178.455 0.896484 176.557 0.896484H135.295C135.203 0.896484 135.123 0.914845 135.031 0.920965C134.946 0.914845 134.86 0.896484 134.768 0.896484C133.189 0.896484 131.91 2.17562 131.91 3.75465V3.82197C131.886 3.98722 131.861 4.15246 131.861 4.32383C131.861 4.4952 131.886 4.66044 131.91 4.82569V36.2165C131.886 36.3818 131.861 36.547 131.861 36.7184C131.861 36.8897 131.886 37.055 131.91 37.2202V69.6882C131.91 71.2672 133.189 72.5464 134.768 72.5464C136.347 72.5464 137.626 71.2672 137.626 69.6882V40.1457H176.557C178.449 40.1457 179.985 38.6095 179.985 36.7184C179.985 34.8272 178.449 33.291 176.557 33.291V33.2971Z"/><path fill="#D83B3F" d="M46.9363 67.4727L7.15458 37.3916L46.9363 7.3044C48.0685 6.44756 48.295 4.83181 47.4381 3.69956L47.0954 3.24666C46.2386 2.11442 44.6228 1.88797 43.4906 2.7448L5.802 31.253V3.75465C5.802 2.17562 4.52287 0.896484 2.94384 0.896484C1.37093 0.896484 0.0917969 2.17562 0.0917969 3.75465V69.7004C0.0917969 71.2795 1.37093 72.5586 2.94996 72.5586C4.52899 72.5586 5.80812 71.2795 5.80812 69.7004V43.5302L43.5028 72.0323C44.6351 72.8891 46.2508 72.6627 47.1076 71.5304L47.4504 71.0775C48.3072 69.9453 48.0808 68.3295 46.9485 67.4727H46.9363Z"/><path fill="#000" d="M2.99868 92.0945L1.31561 93.802V96.1828H-0.000244141V86.9841H1.31561V92.1251L6.30974 86.9841H7.80921L3.88 91.1275L8.06014 96.1889H6.52395L3.0048 92.1006L2.99868 92.0945Z"/><path fill="#000" d="M14.9395 93.8816H10.0494L9.03959 96.1828H7.68701L11.8549 86.9841H13.1585L17.3387 96.1828H15.9616L14.9518 93.8816H14.9395ZM14.4805 92.8289L12.4975 88.3244L10.5146 92.8289H14.4805Z"/><path fill="#000" d="M24.842 96.1767L22.8591 93.3492C22.6755 93.3614 22.4796 93.3737 22.2838 93.3737H20.007V96.1706H18.6912V86.9719H22.2776C24.6707 86.9719 26.115 88.1837 26.115 90.1789C26.115 91.5988 25.3806 92.6209 24.0892 93.086L26.268 96.1767H24.8359H24.842ZM24.8053 90.185C24.8053 88.8691 23.924 88.1225 22.2409 88.1225H20.007V92.2598H22.2409C23.924 92.2598 24.8053 91.5009 24.8053 90.185Z"/><path fill="#000" d="M36.1523 86.978V96.1767H35.0751L29.5546 89.3159V96.1767H28.2388V86.978H29.3159L34.8364 93.8388V86.978H36.1523Z"/><path fill="#000" d="M44.7694 93.8816H39.8793L38.8694 96.1828H37.5168L41.6847 86.9841H42.9884L47.1685 96.1828H45.7914L44.7816 93.8816H44.7694ZM44.3103 92.8289L42.3274 88.3244L40.3444 92.8289H44.3103Z"/><path fill="#000" d="M56.0247 86.978L51.9914 96.1767H50.6878L46.6423 86.978H48.0622L51.3733 94.5365L54.7088 86.978H56.0247Z"/><path fill="#000" d="M62.7633 93.8816H57.8732L56.8633 96.1828H55.5107L59.6786 86.9841H60.9823L65.1624 96.1828H63.7853L62.7755 93.8816H62.7633ZM62.3042 92.8289L60.3213 88.3244L58.3383 92.8289H62.3042Z"/><path fill="#000" d="M67.8858 88.1225H64.7339V86.978H72.3414V88.1225H69.1894V96.1767H67.8858V88.1225Z"/><path fill="#000" d="M73.7671 86.978H75.0829V96.1767H73.7671V86.978Z"/><path fill="#000" d="M81.3748 86.978H82.6906V96.1767H81.3748V86.978Z"/><path fill="#000" d="M93.3583 86.978V96.1767H92.2812L86.7607 89.3159V96.1767H85.4448V86.978H86.522L92.0425 93.8388V86.978H93.3583Z"/><path fill="#000" d="M104.026 86.978V96.1767H102.949L97.4282 89.3159V96.1767H96.1123V86.978H97.1895L102.71 93.8388V86.978H104.026Z"/><path fill="#000" d="M106.028 91.5804C106.028 88.8875 108.102 86.8739 110.93 86.8739C113.757 86.8739 115.808 88.8691 115.808 91.5804C115.808 94.2917 113.733 96.2869 110.93 96.2869C108.127 96.2869 106.028 94.2733 106.028 91.5804ZM114.492 91.5804C114.492 89.5423 112.968 88.0429 110.93 88.0429C108.892 88.0429 107.343 89.5423 107.343 91.5804C107.343 93.6184 108.867 95.1179 110.93 95.1179C112.992 95.1179 114.492 93.6184 114.492 91.5804Z"/><path fill="#000" d="M125.514 86.978L121.481 96.1767H120.177L116.132 86.978H117.552L120.863 94.5365L124.198 86.978H125.514Z"/><path fill="#000" d="M132.253 93.8816H127.363L126.353 96.1828H125L129.168 86.9841H130.472L134.652 96.1828H133.275L132.265 93.8816H132.253ZM131.794 92.8289L129.811 88.3244L127.828 92.8289H131.794Z"/><path fill="#000" d="M137.369 88.1225H134.217V86.978H141.825V88.1225H138.673V96.1767H137.369V88.1225Z"/><path fill="#000" d="M143.257 86.978H144.572V96.1767H143.257V86.978Z"/><path fill="#000" d="M146.58 91.5804C146.58 88.8875 148.655 86.8739 151.482 86.8739C154.31 86.8739 156.36 88.8691 156.36 91.5804C156.36 94.2917 154.285 96.2869 151.482 96.2869C148.679 96.2869 146.58 94.2733 146.58 91.5804ZM155.044 91.5804C155.044 89.5423 153.52 88.0429 151.482 88.0429C149.444 88.0429 147.896 89.5423 147.896 91.5804C147.896 93.6184 149.42 95.1179 151.482 95.1179C153.545 95.1179 155.044 93.6184 155.044 91.5804Z"/><path fill="#000" d="M166.269 86.978V96.1767H165.192L159.672 89.3159V96.1767H158.356V86.978H159.433L164.953 93.8388V86.978H166.269Z"/><path fill="#000" d="M179.287 96.3236L178.063 95.0995C177.261 95.8768 176.208 96.2807 174.984 96.2807C173.117 96.2807 171.765 95.2954 171.765 93.8877C171.765 92.7555 172.408 91.966 173.999 91.0602C173.173 90.2339 172.897 89.6403 172.897 88.9609C172.897 87.7246 173.87 86.8984 175.382 86.8984C176.777 86.8984 177.671 87.6206 177.671 88.8201C177.671 89.7565 177.12 90.4236 175.712 91.2254L177.989 93.4838C178.24 93.0125 178.436 92.4556 178.552 91.8129L179.562 92.1434C179.403 92.9574 179.128 93.6674 178.76 94.2488L179.997 95.4851L179.287 96.3236ZM177.316 94.3651L174.703 91.764C173.417 92.4862 173.007 93.0248 173.007 93.7592C173.007 94.6405 173.834 95.2281 175.07 95.2281C175.951 95.2281 176.728 94.9404 177.316 94.359V94.3651ZM174.072 88.9364C174.072 89.4077 174.256 89.7504 175.009 90.5154C176.22 89.83 176.612 89.4138 176.612 88.8324C176.612 88.2509 176.178 87.8225 175.388 87.8225C174.562 87.8225 174.072 88.2816 174.072 88.9425V88.9364Z"/><path fill="#000" d="M-0.000244141 104.776H1.31561V113.974H-0.000244141V104.776Z"/><path fill="#000" d="M11.8915 104.776V113.974H10.8144L5.29388 107.114V113.974H3.97803V104.776H5.05519L10.5757 111.636V104.776H11.8915Z"/><path fill="#000" d="M13.8071 109.378C13.8071 106.655 15.8819 104.672 18.685 104.672C20.1049 104.672 21.3412 105.155 22.1796 106.104L21.3228 106.93C20.6129 106.183 19.7438 105.841 18.7339 105.841C16.6592 105.841 15.1169 107.34 15.1169 109.378C15.1169 111.416 16.6531 112.916 18.7339 112.916C19.7438 112.916 20.6129 112.561 21.3228 111.814L22.1796 112.64C21.3412 113.589 20.1049 114.085 18.6727 114.085C15.888 114.085 13.8071 112.102 13.8071 109.378Z"/><path fill="#000" d="M23.8382 110.008V104.776H25.154V109.953C25.154 111.991 26.0843 112.909 27.7429 112.909C29.4015 112.909 30.344 111.991 30.344 109.953V104.776H31.617V110.008C31.617 112.677 30.1604 114.085 27.7245 114.085C25.2887 114.085 23.832 112.677 23.832 110.008H23.8382Z"/><path fill="#000" d="M42.132 111.496C42.132 113.075 40.9386 113.981 38.6067 113.981H34.2185V104.782H38.3436C40.4612 104.782 41.6424 105.675 41.6424 107.163C41.6424 108.16 41.1283 108.858 40.4061 109.213C41.4465 109.501 42.1259 110.278 42.1259 111.502L42.132 111.496ZM35.5344 105.847V108.791H38.2273C39.5676 108.791 40.3326 108.289 40.3326 107.322C40.3326 106.355 39.5676 105.847 38.2273 105.847H35.5344ZM40.8039 111.392C40.8039 110.327 40.0144 109.855 38.5578 109.855H35.5344V112.916H38.5578C40.0144 112.916 40.8039 112.457 40.8039 111.392Z"/><path fill="#000" d="M49.9288 111.679H45.0387L44.0288 113.981H42.6763L46.8442 104.782H48.1478L52.3279 113.981H50.9509L49.941 111.679H49.9288ZM49.4698 110.627L47.4868 106.122L45.5038 110.627H49.4698Z"/><path fill="#000" d="M54.9598 105.92H51.8079V104.776H59.4153V105.92H56.2634V113.974H54.9598V105.92Z"/><path fill="#000" d="M60.7495 104.776H62.0654V113.974H60.7495V104.776Z"/><path fill="#000" d="M63.981 109.378C63.981 106.685 66.0557 104.672 68.8833 104.672C71.7108 104.672 73.7611 106.667 73.7611 109.378C73.7611 112.089 71.6864 114.085 68.8833 114.085C66.0802 114.085 63.981 112.071 63.981 109.378ZM72.4453 109.378C72.4453 107.34 70.9213 105.841 68.8833 105.841C66.8452 105.841 65.2968 107.34 65.2968 109.378C65.2968 111.416 66.8208 112.916 68.8833 112.916C70.9458 112.916 72.4453 111.416 72.4453 109.378Z"/><path fill="#000" d="M83.5844 104.776V113.974H82.5072L76.9868 107.114V113.974H75.6709V104.776H76.7481L82.2685 111.636V104.776H83.5844Z"/><path fill="#000" d="M91.0019 105.92V109.127H95.6166V110.259H91.0019V113.981H89.686V104.782H96.1796V105.926H91.0019V105.92Z"/><path fill="#000" d="M97.0854 109.378C97.0854 106.685 99.1602 104.672 101.988 104.672C104.815 104.672 106.866 106.667 106.866 109.378C106.866 112.089 104.791 114.085 101.988 114.085C99.1847 114.085 97.0854 112.071 97.0854 109.378ZM105.55 109.378C105.55 107.34 104.026 105.841 101.988 105.841C99.9497 105.841 98.4013 107.34 98.4013 109.378C98.4013 111.416 99.9252 112.916 101.988 112.916C104.05 112.916 105.55 111.416 105.55 109.378Z"/><path fill="#000" d="M108.696 110.008V104.776H110.011V109.953C110.011 111.991 110.942 112.909 112.6 112.909C114.259 112.909 115.201 111.991 115.201 109.953V104.776H116.474V110.008C116.474 112.677 115.018 114.085 112.582 114.085C110.146 114.085 108.689 112.677 108.689 110.008H108.696Z"/><path fill="#000" d="M126.983 104.776V113.974H125.906L120.385 107.114V113.974H119.07V104.776H120.147L125.667 111.636V104.776H126.983Z"/><path fill="#000" d="M129.646 104.776H133.526C136.482 104.776 138.495 106.642 138.495 109.378C138.495 112.114 136.488 113.981 133.526 113.981H129.646V104.782V104.776ZM133.446 112.83C135.723 112.83 137.18 111.434 137.18 109.372C137.18 107.309 135.723 105.914 133.446 105.914H130.961V112.824H133.446V112.83Z"/><path fill="#000" d="M146.133 111.679H141.243L140.233 113.981H138.881L143.049 104.782H144.352L148.532 113.981H147.155L146.145 111.679H146.133ZM145.674 110.627L143.691 106.122L141.708 110.627H145.674Z"/><path fill="#000" d="M151.164 105.92H148.012V104.776H155.62V105.92H152.468V113.974H151.164V105.92Z"/><path fill="#000" d="M156.954 104.776H158.27V113.974H156.954V104.776Z"/><path fill="#000" d="M160.186 109.378C160.186 106.685 162.26 104.672 165.088 104.672C167.915 104.672 169.966 106.667 169.966 109.378C169.966 112.089 167.891 114.085 165.088 114.085C162.285 114.085 160.186 112.071 160.186 109.378ZM168.65 109.378C168.65 107.34 167.126 105.841 165.088 105.841C163.05 105.841 161.501 107.34 161.501 109.378C161.501 111.416 163.025 112.916 165.088 112.916C167.15 112.916 168.65 111.416 168.65 109.378Z"/><path fill="#000" d="M179.789 104.776V113.974H178.711L173.191 107.114V113.974H171.875V104.776H172.952L178.473 111.636V104.776H179.789Z"/></svg>
